X: 1748
T: the Redhaired Boy   #2
R: hornpipe, reel
%S: s:4 b:10(6+4)
B: O'Neill's 1850 #1748
O: F.O'Neill
Z: Bob Safranek, rjs@gsp.org
Z: A. LEE WORMAN
N: Compacted by using labels and play order [JC]
P: Play (A1A2)x2+(BA2)x2
M: 2/4
L: 1/16
K: A
"^A"[|](AG) |: EAAG ABcd   | efec d2(cd) |1 edcB ABcA | BGEF G2(ED) :|2 eaab aged | c2A2 A2 |]
"^B"[| (ef) | gfga g2(ef) | gfec d2(cd) | edcB ABcA | BGEF G2 |]
%%text Most of the G notes are usually G naturals.
